X: 82
T:Levi Jackson Rag
M:4/4
L:1/8
R:Reel
K:G
d2e2f2|"G"g4 d4|ed Bd-|dB A2 G4|D6 E2|!
=F4 _B4|"Bb"d=fg2 f>d =c2|"D"d8-|d2d2e2^f2|!
"G"g4 d4|ed Bd- dB A2|G8|E4 _E2|!
"D" D4 d4|BG A _B>G A2|"G"G8||"G"G2^F2=F2|!
"C" EG AE GA EG|"C" AE GA EG Ac|"C"e e2e2 d c2|"C"A4|!
"E"^GB ^cG B^c ^GB|^c^G Bc GB ce|"C#m"^gg2 g2^fe2|^c4-|!
^c6 ef|"E"^gg2g2 f e2|"G"  =gg2 g2 f d2|"D"ff2 f2 e d2|!
"D7"fa f e2 d B2|"G"b4 g4|"D"ed B"G"A2 G "G"E2|G8:|!
%  ABC2Win Version 2.1 10/5/2001
